{ "backgroundcolor":"#47aba9",
 "compressionlevel":-1,
 "height":5,
 "infinite":false,
 "layers":[
        {
         "id":2,
         "image":"..\/textures\/ref.png",
         "imageheight":1200,
         "imagewidth":2345,
         "name":"ref",
         "offsetx":-734,
         "offsety":-354,
         "opacity":1,
         "type":"imagelayer",
         "visible":true,
         "x":0,
         "y":0
        }, 
        {
         "data":[0, 0, 0, 0, 0, 0, 0, 0, 0,
            0, 0, 0, 0, 0, 0, 0, 0, 0,
            0, 0, 0, 0, 0, 0, 0, 0, 0,
            0, 0, 0, 0, 0, 0, 0, 0, 0,
            0, 0, 0, 0, 0, 0, 0, 0, 0],
         "height":5,
         "id":12,
         "name":"ground1",
         "opacity":1,
         "type":"tilelayer",
         "visible":true,
         "width":9,
         "x":0,
         "y":0
        }, 
        {
         "draworder":"topdown",
         "id":15,
         "name":"deco1",
         "objects":[
                {
                 "gid":1,
                 "height":128,
                 "id":153,
                 "name":"",
                 "rotation":0,
                 "type":"",
                 "visible":true,
                 "width":101,
                 "x":0,
                 "y":256
                }, 
                {
                 "gid":1,
                 "height":128,
                 "id":154,
                 "name":"",
                 "rotation":0,
                 "type":"",
                 "visible":true,
                 "width":101,
                 "x":101,
                 "y":512
                }, 
                {
                 "gid":1,
                 "height":128,
                 "id":155,
                 "name":"",
                 "rotation":0,
                 "type":"",
                 "visible":true,
                 "width":101,
                 "x":303,
                 "y":384
                }, 
                {
                 "gid":1,
                 "height":128,
                 "id":156,
                 "name":"",
                 "rotation":0,
                 "type":"",
                 "visible":true,
                 "width":101,
                 "x":606,
                 "y":640
                }],
         "opacity":1,
         "type":"objectgroup",
         "visible":true,
         "x":0,
         "y":0
        }],
 "nextlayerid":16,
 "nextobjectid":157,
 "orientation":"orthogonal",
 "renderorder":"right-down",
 "tiledversion":"1.11.2",
 "tileheight":128,
 "tilesets":[
        {
         "firstgid":1,
         "source":"tileset\/Peashooter.tsj"
        }],
 "tilewidth":101,
 "type":"map",
 "version":"1.10",
 "width":9
}